icons/modern/thumbs-down-dark.svg

<svg width="32" height="32" viewBox="0 0 32 32" fill="none" xmlns="http://www.w3.org/2000/svg">
<g filter="url(#filter0_i_20020_3052)">
<path d="M20.3071 26.5503C20.3071 28.3553 18.8439 29.8185 17.039 29.8185C15.234 29.8185 13.7707 28.3553 13.7707 26.5503L13.7707 22.7892C13.7707 22.4685 13.793 22.1487 13.8425 21.829C13.8606 21.7122 13.8787 21.5956 13.89 21.4792C13.9257 21.111 13.8821 20.6301 13.6318 20.3072L14.2295 19.7307C11.2329 18.1998 9.17959 15.0691 9.17959 11.4559C9.17959 10.477 9.33031 9.53346 9.60966 8.64761L10.5999 2.18141L18.6514 2.18141L18.6514 2.18415C23.6235 2.29121 27.6127 5.53359 27.6127 11.4559C27.6127 14.9372 25.9458 17.7397 23.424 19.32L23.4302 19.325C23.2584 19.4444 23.0558 19.5658 22.8386 19.6961L22.837 19.697C22.1218 20.1258 21.2477 20.6498 20.7865 21.5067C20.3867 22.2497 20.309 23.4555 20.309 24.0146L20.3071 24.0137L20.3071 26.5503Z" fill="url(#paint0_linear_20020_3052)"/>
</g>
<path d="M20.3071 26.5503C20.3071 28.3553 18.8439 29.8185 17.039 29.8185C15.234 29.8185 13.7707 28.3553 13.7707 26.5503L13.7707 22.7892C13.7707 22.4685 13.793 22.1487 13.8425 21.829C13.8606 21.7122 13.8787 21.5956 13.89 21.4792C13.9257 21.111 13.8821 20.6301 13.6318 20.3072L14.2295 19.7307C11.2329 18.1998 9.17959 15.0691 9.17959 11.4559C9.17959 10.477 9.33031 9.53346 9.60966 8.64761L10.5999 2.18141L18.6514 2.18141L18.6514 2.18415C23.6235 2.29121 27.6127 5.53359 27.6127 11.4559C27.6127 14.9372 25.9458 17.7397 23.424 19.32L23.4302 19.325C23.2584 19.4444 23.0558 19.5658 22.8386 19.6961L22.837 19.697C22.1218 20.1258 21.2477 20.6498 20.7865 21.5067C20.3867 22.2497 20.309 23.4555 20.309 24.0146L20.3071 24.0137L20.3071 26.5503Z" fill="url(#paint1_radial_20020_3052)"/>
<path d="M20.3071 26.5503C20.3071 28.3553 18.8439 29.8185 17.039 29.8185C15.234 29.8185 13.7707 28.3553 13.7707 26.5503L13.7707 22.7892C13.7707 22.4685 13.793 22.1487 13.8425 21.829C13.8606 21.7122 13.8787 21.5956 13.89 21.4792C13.9257 21.111 13.8821 20.6301 13.6318 20.3072L14.2295 19.7307C11.2329 18.1998 9.17959 15.0691 9.17959 11.4559C9.17959 10.477 9.33031 9.53346 9.60966 8.64761L10.5999 2.18141L18.6514 2.18141L18.6514 2.18415C23.6235 2.29121 27.6127 5.53359 27.6127 11.4559C27.6127 14.9372 25.9458 17.7397 23.424 19.32L23.4302 19.325C23.2584 19.4444 23.0558 19.5658 22.8386 19.6961L22.837 19.697C22.1218 20.1258 21.2477 20.6498 20.7865 21.5067C20.3867 22.2497 20.309 23.4555 20.309 24.0146L20.3071 24.0137L20.3071 26.5503Z" fill="url(#paint2_radial_20020_3052)"/>
<path d="M20.3071 26.5503C20.3071 28.3553 18.8439 29.8185 17.039 29.8185C15.234 29.8185 13.7707 28.3553 13.7707 26.5503L13.7707 22.7892C13.7707 22.4685 13.793 22.1487 13.8425 21.829C13.8606 21.7122 13.8787 21.5956 13.89 21.4792C13.9257 21.111 13.8821 20.6301 13.6318 20.3072L14.2295 19.7307C11.2329 18.1998 9.17959 15.0691 9.17959 11.4559C9.17959 10.477 9.33031 9.53346 9.60966 8.64761L10.5999 2.18141L18.6514 2.18141L18.6514 2.18415C23.6235 2.29121 27.6127 5.53359 27.6127 11.4559C27.6127 14.9372 25.9458 17.7397 23.424 19.32L23.4302 19.325C23.2584 19.4444 23.0558 19.5658 22.8386 19.6961L22.837 19.697C22.1218 20.1258 21.2477 20.6498 20.7865 21.5067C20.3867 22.2497 20.309 23.4555 20.309 24.0146L20.3071 24.0137L20.3071 26.5503Z" fill="url(#paint3_radial_20020_3052)"/>
<g filter="url(#filter1_f_20020_3052)">
<path d="M8.43184 5.91874C8.43184 6.38722 8.55442 6.82586 8.76798 7.2017C7.91301 7.62992 7.32281 8.54108 7.32281 9.59593C7.32281 10.4162 7.67968 11.1495 8.2404 11.6365C7.70285 12.1128 7.3618 12.8228 7.3618 13.6158C7.3618 14.655 7.94745 15.5517 8.79348 15.9667C8.40876 16.4229 8.17546 17.0213 8.17546 17.6764C8.17546 19.1073 9.28828 20.2673 10.661 20.2673H13.4141C14.7868 20.2673 15.8996 19.1073 15.8996 17.6764C15.8996 16.8783 15.5534 16.1644 15.0089 15.6891C15.6109 15.2151 16 14.4628 16 13.6158C16 12.8133 15.6507 12.0957 15.1019 11.6194C15.6514 11.1325 16 10.4066 16 9.59593C16 8.86829 15.7192 8.20902 15.2643 7.72947C15.718 7.2712 16 6.6293 16 5.91874C16 4.52635 14.9171 3.39758 13.5813 3.39758H10.8505C9.51471 3.39758 8.43184 4.52634 8.43184 5.91874Z" fill="#35201E"/>
</g>
<g filter="url(#filter2_f_20020_3052)">
<path d="M22.791 18.9835C19.1477 16.7429 15.4914 18.3162 14.5439 18.9835L13.7032 17.9025C19.0838 15.3403 21.9503 17.5422 22.791 18.9835Z" fill="#402530"/>
</g>
<rect x="6.70261" y="21.0126" width="5.7842" height="8.98756" rx="2.8921" transform="rotate(-90 6.70261 21.0126)" fill="url(#paint4_linear_20020_3052)"/>
<rect x="6.70261" y="21.0126" width="5.7842" height="8.98756" rx="2.8921" transform="rotate(-90 6.70261 21.0126)" fill="url(#paint5_linear_20020_3052)"/>
<rect x="6.70261" y="21.0126" width="5.7842" height="8.98756" rx="2.8921" transform="rotate(-90 6.70261 21.0126)" fill="url(#paint6_radial_20020_3052)"/>
<rect x="6.70261" y="21.0126" width="5.7842" height="8.98756" rx="2.8921" transform="rotate(-90 6.70261 21.0126)" fill="url(#paint7_radial_20020_3052)"/>
<rect x="6.70261" y="21.0126" width="5.7842" height="8.98756" rx="2.8921" transform="rotate(-90 6.70261 21.0126)" fill="url(#paint8_radial_20020_3052)"/>
<rect x="7.00092" y="7.81006" width="5.62856" height="8.80604" rx="2.81428" transform="rotate(-90 7.00092 7.81006)" fill="url(#paint9_linear_20020_3052)"/>
<rect x="7.00092" y="7.81006" width="5.62856" height="8.80604" rx="2.81428" transform="rotate(-90 7.00092 7.81006)" fill="url(#paint10_radial_20020_3052)"/>
<rect x="7.00092" y="7.81006" width="5.62856" height="8.80604" rx="2.81428" transform="rotate(-90 7.00092 7.81006)" fill="url(#paint11_radial_20020_3052)"/>
<rect x="7.00092" y="7.81006" width="5.62856" height="8.80604" rx="2.81428" transform="rotate(-90 7.00092 7.81006)" fill="url(#paint12_radial_20020_3052)"/>
<rect x="5.7105" y="12.0638" width="5.92687" height="10.0965" rx="2.9101" transform="rotate(-90 5.7105 12.0638)" fill="url(#paint13_linear_20020_3052)"/>
<rect x="5.7105" y="12.0638" width="5.92687" height="10.0965" rx="2.9101" transform="rotate(-90 5.7105 12.0638)" fill="url(#paint14_radial_20020_3052)"/>
<rect x="5.7105" y="12.0638" width="5.92687" height="10.0965" rx="2.9101" transform="rotate(-90 5.7105 12.0638)" fill="url(#paint15_radial_20020_3052)"/>
<rect x="5.7105" y="12.0638" width="5.92687" height="10.0965" rx="2.9101" transform="rotate(-90 5.7105 12.0638)" fill="url(#paint16_radial_20020_3052)"/>
<rect x="5.75587" y="16.4863" width="5.79717" height="10.0511" rx="2.89858" transform="rotate(-90 5.75587 16.4863)" fill="url(#paint17_linear_20020_3052)"/>
<rect x="5.75587" y="16.4863" width="5.79717" height="10.0511" rx="2.89858" transform="rotate(-90 5.75587 16.4863)" fill="url(#paint18_radial_20020_3052)"/>
<rect x="5.75587" y="16.4863" width="5.79717" height="10.0511" rx="2.89858" transform="rotate(-90 5.75587 16.4863)" fill="url(#paint19_radial_20020_3052)"/>
<rect x="5.75587" y="16.4863" width="5.79717" height="10.0511" rx="2.89858" transform="rotate(-90 5.75587 16.4863)" fill="url(#paint20_radial_20020_3052)"/>
<defs>
<filter id="filter0_i_20020_3052" x="9.17959" y="2.1814" width="18.9331" height="27.6371" filterUnits="userSpaceOnUse" color-interpolation-filters="sRGB">
<feFlood flood-opacity="0" result="BackgroundImageFix"/>
<feBlend mode="normal" in="SourceGraphic" in2="BackgroundImageFix" result="shape"/>
<feColorMatrix in="SourceAlpha" type="matrix" values="0 0 0 0 0 0 0 0 0 0 0 0 0 0 0 0 0 0 127 0" result="hardAlpha"/>
<feOffset dx="0.5"/>
<feGaussianBlur stdDeviation="0.5"/>
<feComposite in2="hardAlpha" operator="arithmetic" k2="-1" k3="1"/>
<feColorMatrix type="matrix" values="0 0 0 0 0.305882 0 0 0 0 0.235294 0 0 0 0 0.227451 0 0 0 1 0"/>
<feBlend mode="normal" in2="shape" result="effect1_innerShadow_20020_3052"/>
</filter>
<filter id="filter1_f_20020_3052" x="5.32281" y="1.39758" width="12.6772" height="20.8698" filterUnits="userSpaceOnUse" color-interpolation-filters="sRGB">
<feFlood flood-opacity="0" result="BackgroundImageFix"/>
<feBlend mode="normal" in="SourceGraphic" in2="BackgroundImageFix" result="shape"/>
<feGaussianBlur stdDeviation="1" result="effect1_foregroundBlur_20020_3052"/>
</filter>
<filter id="filter2_f_20020_3052" x="12.2032" y="15.2238" width="12.0878" height="5.25977" filterUnits="userSpaceOnUse" color-interpolation-filters="sRGB">
<feFlood flood-opacity="0" result="BackgroundImageFix"/>
<feBlend mode="normal" in="SourceGraphic" in2="BackgroundImageFix" result="shape"/>
<feGaussianBlur stdDeviation="0.75" result="effect1_foregroundBlur_20020_3052"/>
</filter>
<linearGradient id="paint0_linear_20020_3052" x1="26.5875" y1="8.10497" x2="12.0929" y2="29.8185" gradientUnits="userSpaceOnUse">
<stop stop-color="#523835"/>
<stop offset="1" stop-color="#40292B"/>
</linearGradient>
<radialGradient id="paint1_radial_20020_3052" cx="0" cy="0" r="1" gradientUnits="userSpaceOnUse" gradientTransform="translate(24.4949 7.56686) rotate(150.369) scale(7.01627 8.05158)">
<stop stop-color="#745E5C"/>
<stop offset="1" stop-color="#665250" stop-opacity="0"/>
</radialGradient>
<radialGradient id="paint2_radial_20020_3052" cx="0" cy="0" r="1" gradientUnits="userSpaceOnUse" gradientTransform="translate(19.8955 26.0836) scale(4.64396 9.96517)">
<stop stop-color="#5B4444"/>
<stop offset="1" stop-color="#5B4444" stop-opacity="0"/>
</radialGradient>
<radialGradient id="paint3_radial_20020_3052" cx="0" cy="0" r="1" gradientUnits="userSpaceOnUse" gradientTransform="translate(17.2866 10.2147) rotate(90) scale(20.0228 12.9389)">
<stop offset="0.902214" stop-color="#3F233B" stop-opacity="0"/>
<stop offset="1" stop-color="#3F233B"/>
</radialGradient>
<linearGradient id="paint4_linear_20020_3052" x1="9.59471" y1="21.0126" x2="9.59471" y2="30.0001" gradientUnits="userSpaceOnUse">
<stop stop-color="#3D2728"/>
<stop offset="1" stop-color="#4D312E"/>
</linearGradient>
<linearGradient id="paint5_linear_20020_3052" x1="6.35036" y1="25.5064" x2="8.22673" y2="25.5064" gradientUnits="userSpaceOnUse">
<stop stop-color="#3D2238"/>
<stop offset="1" stop-color="#3D2238" stop-opacity="0"/>
</linearGradient>
<radialGradient id="paint6_radial_20020_3052" cx="0" cy="0" r="1" gradientUnits="userSpaceOnUse" gradientTransform="translate(10.2556 28.6553) rotate(-90) scale(2.58086 2.00356)">
<stop stop-color="#65514F"/>
<stop offset="1" stop-color="#65514F" stop-opacity="0"/>
</radialGradient>
<radialGradient id="paint7_radial_20020_3052" cx="0" cy="0" r="1" gradientUnits="userSpaceOnUse" gradientTransform="translate(11.2155 24.9484) rotate(180) scale(0.931292 4.89838)">
<stop stop-color="#220D0F"/>
<stop offset="1" stop-color="#220D0F" stop-opacity="0"/>
</radialGradient>
<radialGradient id="paint8_radial_20020_3052" cx="0" cy="0" r="1" gradientUnits="userSpaceOnUse" gradientTransform="translate(9.59471 28.3282) rotate(-91.3531) scale(7.31765 8.00427)">
<stop offset="0.807914" stop-color="#554542" stop-opacity="0"/>
<stop offset="1" stop-color="#554542"/>
</radialGradient>
<linearGradient id="paint9_linear_20020_3052" x1="8.34508" y1="8.71792" x2="10.69" y2="15.8226" gradientUnits="userSpaceOnUse">
<stop stop-color="#392726"/>
<stop offset="1" stop-color="#5A423E"/>
</linearGradient>
<radialGradient id="paint10_radial_20020_3052" cx="0" cy="0" r="1" gradientUnits="userSpaceOnUse" gradientTransform="translate(7.88508 12.1249) scale(1.06838 4.40184)">
<stop stop-color="#321C19"/>
<stop offset="1" stop-color="#321C19" stop-opacity="0"/>
</radialGradient>
<radialGradient id="paint11_radial_20020_3052" cx="0" cy="0" r="1" gradientUnits="userSpaceOnUse" gradientTransform="translate(10.7874 14.998) rotate(-90) scale(2.78495 2.38236)">
<stop stop-color="#634F4D"/>
<stop offset="1" stop-color="#634F4D" stop-opacity="0"/>
</radialGradient>
<radialGradient id="paint12_radial_20020_3052" cx="0" cy="0" r="1" gradientUnits="userSpaceOnUse" gradientTransform="translate(9.81521 14.9779) rotate(-91.3438) scale(7.16983 7.78893)">
<stop offset="0.807914" stop-color="#564744" stop-opacity="0"/>
<stop offset="1" stop-color="#564744"/>
</radialGradient>
<linearGradient id="paint13_linear_20020_3052" x1="7.1259" y1="13.1047" x2="10.0009" y2="21.1047" gradientUnits="userSpaceOnUse">
<stop stop-color="#3C2827"/>
<stop offset="1" stop-color="#553B37"/>
</linearGradient>
<radialGradient id="paint14_radial_20020_3052" cx="0" cy="0" r="1" gradientUnits="userSpaceOnUse" gradientTransform="translate(6.64152 17.011) scale(1.125 5.04687)">
<stop stop-color="#2B1715"/>
<stop offset="1" stop-color="#2B1715" stop-opacity="0"/>
</radialGradient>
<radialGradient id="paint15_radial_20020_3052" cx="0" cy="0" r="1" gradientUnits="userSpaceOnUse" gradientTransform="translate(9.23636 20.227) rotate(-90) scale(2.68226 2.10732)">
<stop stop-color="#65514F"/>
<stop offset="1" stop-color="#65514F" stop-opacity="0"/>
</radialGradient>
<radialGradient id="paint16_radial_20020_3052" cx="0" cy="0" r="1" gradientUnits="userSpaceOnUse" gradientTransform="translate(8.67394 20.2821) rotate(-91.2342) scale(8.22013 8.20208)">
<stop offset="0.807914" stop-color="#574744" stop-opacity="0"/>
<stop offset="1" stop-color="#574744"/>
</radialGradient>
<linearGradient id="paint17_linear_20020_3052" x1="8.65445" y1="16.4863" x2="8.65445" y2="25.5154" gradientUnits="userSpaceOnUse">
<stop stop-color="#3F2C29"/>
<stop offset="1" stop-color="#4D332F"/>
</linearGradient>
<radialGradient id="paint18_radial_20020_3052" cx="0" cy="0" r="1" gradientUnits="userSpaceOnUse" gradientTransform="translate(5.50074 20.0314) scale(2.38035 7.9345)">
<stop stop-color="#3A1F2D"/>
<stop offset="1" stop-color="#3A1F2D" stop-opacity="0"/>
</radialGradient>
<radialGradient id="paint19_radial_20020_3052" cx="0" cy="0" r="1" gradientUnits="userSpaceOnUse" gradientTransform="translate(9.20457 24.6128) rotate(-90) scale(2.6702 2.06121)">
<stop stop-color="#665150"/>
<stop offset="1" stop-color="#665150" stop-opacity="0"/>
</radialGradient>
<radialGradient id="paint20_radial_20020_3052" cx="0" cy="0" r="1" gradientUnits="userSpaceOnUse" gradientTransform="translate(8.65445 24.6676) rotate(-91.2127) scale(8.1831 8.02265)">
<stop offset="0.807914" stop-color="#564642" stop-opacity="0"/>
<stop offset="1" stop-color="#564642"/>
</radialGradient>
</defs>
</svg>

<svg width="32" height="32" fill="none" xmlns="http://www.w3.org/2000/svg"><g filter="url(#a)"><path d="M20.307 26.55a3.268 3.268 0 1 1-6.536 0v-3.76c0-.322.022-.641.071-.961.019-.117.037-.233.048-.35.036-.368-.008-.849-.258-1.172l.598-.576a9.28 9.28 0 0 1-5.05-8.275c0-.979.15-1.923.43-2.808l.99-6.467h8.051v.003c4.973.107 8.962 3.35 8.962 9.272 0 3.481-1.667 6.284-4.189 7.864l.006.005c-.172.12-.374.24-.591.371l-.002.001c-.715.429-1.59.953-2.05 1.81-.4.743-.478 1.948-.478 2.508l-.002-.001v2.536Z" fill="url(#b)"/></g><path d="M20.307 26.55a3.268 3.268 0 1 1-6.536 0v-3.76c0-.322.022-.641.071-.961.019-.117.037-.233.048-.35.036-.368-.008-.849-.258-1.172l.598-.576a9.28 9.28 0 0 1-5.05-8.275c0-.979.15-1.923.43-2.808l.99-6.467h8.051v.003c4.973.107 8.962 3.35 8.962 9.272 0 3.481-1.667 6.284-4.189 7.864l.006.005c-.172.12-.374.24-.591.371l-.002.001c-.715.429-1.59.953-2.05 1.81-.4.743-.478 1.948-.478 2.508l-.002-.001v2.536Z" fill="url(#c)"/><path d="M20.307 26.55a3.268 3.268 0 1 1-6.536 0v-3.76c0-.322.022-.641.071-.961.019-.117.037-.233.048-.35.036-.368-.008-.849-.258-1.172l.598-.576a9.28 9.28 0 0 1-5.05-8.275c0-.979.15-1.923.43-2.808l.99-6.467h8.051v.003c4.973.107 8.962 3.35 8.962 9.272 0 3.481-1.667 6.284-4.189 7.864l.006.005c-.172.12-.374.24-.591.371l-.002.001c-.715.429-1.59.953-2.05 1.81-.4.743-.478 1.948-.478 2.508l-.002-.001v2.536Z" fill="url(#d)"/><path d="M20.307 26.55a3.268 3.268 0 1 1-6.536 0v-3.76c0-.322.022-.641.071-.961.019-.117.037-.233.048-.35.036-.368-.008-.849-.258-1.172l.598-.576a9.28 9.28 0 0 1-5.05-8.275c0-.979.15-1.923.43-2.808l.99-6.467h8.051v.003c4.973.107 8.962 3.35 8.962 9.272 0 3.481-1.667 6.284-4.189 7.864l.006.005c-.172.12-.374.24-.591.371l-.002.001c-.715.429-1.59.953-2.05 1.81-.4.743-.478 1.948-.478 2.508l-.002-.001v2.536Z" fill="url(#e)"/><g filter="url(#f)"><path d="M8.432 5.919c0 .468.122.907.336 1.283-.855.428-1.445 1.34-1.445 2.394 0 .82.357 1.553.917 2.04a2.637 2.637 0 0 0-.878 1.98c0 1.039.585 1.936 1.431 2.35a2.645 2.645 0 0 0-.618 1.71c0 1.431 1.113 2.591 2.486 2.591h2.753c1.373 0 2.486-1.16 2.486-2.59a2.63 2.63 0 0 0-.891-1.988A2.631 2.631 0 0 0 16 13.616c0-.803-.35-1.52-.898-1.997.55-.486.898-1.212.898-2.023 0-.728-.28-1.387-.736-1.867.454-.458.736-1.1.736-1.81 0-1.393-1.083-2.521-2.419-2.521h-2.73c-1.336 0-2.42 1.128-2.42 2.52Z" fill="#35201E"/></g><g filter="url(#g)"><path d="M22.791 18.983c-3.643-2.24-7.3-.667-8.247 0l-.84-1.08c5.38-2.563 8.246-.36 9.087 1.08Z" fill="#402530"/></g><rect x="6.703" y="21.013" width="5.784" height="8.988" rx="2.892" transform="rotate(-90 6.703 21.013)" fill="url(#h)"/><rect x="6.703" y="21.013" width="5.784" height="8.988" rx="2.892" transform="rotate(-90 6.703 21.013)" fill="url(#i)"/><rect x="6.703" y="21.013" width="5.784" height="8.988" rx="2.892" transform="rotate(-90 6.703 21.013)" fill="url(#j)"/><rect x="6.703" y="21.013" width="5.784" height="8.988" rx="2.892" transform="rotate(-90 6.703 21.013)" fill="url(#k)"/><rect x="6.703" y="21.013" width="5.784" height="8.988" rx="2.892" transform="rotate(-90 6.703 21.013)" fill="url(#l)"/><rect x="7.001" y="7.81" width="5.629" height="8.806" rx="2.814" transform="rotate(-90 7 7.81)" fill="url(#m)"/><rect x="7.001" y="7.81" width="5.629" height="8.806" rx="2.814" transform="rotate(-90 7 7.81)" fill="url(#n)"/><rect x="7.001" y="7.81" width="5.629" height="8.806" rx="2.814" transform="rotate(-90 7 7.81)" fill="url(#o)"/><rect x="7.001" y="7.81" width="5.629" height="8.806" rx="2.814" transform="rotate(-90 7 7.81)" fill="url(#p)"/><rect x="5.71" y="12.064" width="5.927" height="10.097" rx="2.91" transform="rotate(-90 5.71 12.064)" fill="url(#q)"/><rect x="5.71" y="12.064" width="5.927" height="10.097" rx="2.91" transform="rotate(-90 5.71 12.064)" fill="url(#r)"/><rect x="5.71" y="12.064" width="5.927" height="10.097" rx="2.91" transform="rotate(-90 5.71 12.064)" fill="url(#s)"/><rect x="5.71" y="12.064" width="5.927" height="10.097" rx="2.91" transform="rotate(-90 5.71 12.064)" fill="url(#t)"/><rect x="5.756" y="16.486" width="5.797" height="10.051" rx="2.899" transform="rotate(-90 5.756 16.486)" fill="url(#u)"/><rect x="5.756" y="16.486" width="5.797" height="10.051" rx="2.899" transform="rotate(-90 5.756 16.486)" fill="url(#v)"/><rect x="5.756" y="16.486" width="5.797" height="10.051" rx="2.899" transform="rotate(-90 5.756 16.486)" fill="url(#w)"/><rect x="5.756" y="16.486" width="5.797" height="10.051" rx="2.899" transform="rotate(-90 5.756 16.486)" fill="url(#x)"/><defs><radialGradient id="c" cx="0" cy="0" r="1" gradientUnits="userSpaceOnUse" gradientTransform="matrix(-6.09874 3.46893 -3.9808 -6.99866 24.495 7.567)"><stop stop-color="#745E5C"/><stop offset="1" stop-color="#665250" stop-opacity="0"/></radialGradient><radialGradient id="d" cx="0" cy="0" r="1" gradientUnits="userSpaceOnUse" gradientTransform="matrix(4.64396 0 0 9.96517 19.895 26.084)"><stop stop-color="#5B4444"/><stop offset="1" stop-color="#5B4444" stop-opacity="0"/></radialGradient><radialGradient id="e" cx="0" cy="0" r="1" gradientUnits="userSpaceOnUse" gradientTransform="matrix(0 20.0228 -12.9389 0 17.287 10.215)"><stop offset=".902" stop-color="#3F233B" stop-opacity="0"/><stop offset="1" stop-color="#3F233B"/></radialGradient><radialGradient id="j" cx="0" cy="0" r="1" gradientUnits="userSpaceOnUse" gradientTransform="matrix(0 -2.58086 2.00356 0 10.256 28.655)"><stop stop-color="#65514F"/><stop offset="1" stop-color="#65514F" stop-opacity="0"/></radialGradient><radialGradient id="k" cx="0" cy="0" r="1" gradientUnits="userSpaceOnUse" gradientTransform="matrix(-.9313 0 0 -4.89838 11.216 24.948)"><stop stop-color="#220D0F"/><stop offset="1" stop-color="#220D0F" stop-opacity="0"/></radialGradient><radialGradient id="l" cx="0" cy="0" r="1" gradientUnits="userSpaceOnUse" gradientTransform="rotate(-91.353 18.63 9.479) scale(7.31765 8.00427)"><stop offset=".808" stop-color="#554542" stop-opacity="0"/><stop offset="1" stop-color="#554542"/></radialGradient><radialGradient id="n" cx="0" cy="0" r="1" gradientUnits="userSpaceOnUse" gradientTransform="matrix(1.06838 0 0 4.40184 7.885 12.125)"><stop stop-color="#321C19"/><stop offset="1" stop-color="#321C19" stop-opacity="0"/></radialGradient><radialGradient id="o" cx="0" cy="0" r="1" gradientUnits="userSpaceOnUse" gradientTransform="matrix(0 -2.78495 2.38236 0 10.787 14.998)"><stop stop-color="#634F4D"/><stop offset="1" stop-color="#634F4D" stop-opacity="0"/></radialGradient><radialGradient id="p" cx="0" cy="0" r="1" gradientUnits="userSpaceOnUse" gradientTransform="rotate(-91.344 12.223 2.695) scale(7.16983 7.78893)"><stop offset=".808" stop-color="#564744" stop-opacity="0"/><stop offset="1" stop-color="#564744"/></radialGradient><radialGradient id="r" cx="0" cy="0" r="1" gradientUnits="userSpaceOnUse" gradientTransform="matrix(1.125 0 0 5.04687 6.642 17.011)"><stop stop-color="#2B1715"/><stop offset="1" stop-color="#2B1715" stop-opacity="0"/></radialGradient><radialGradient id="s" cx="0" cy="0" r="1" gradientUnits="userSpaceOnUse" gradientTransform="matrix(0 -2.68226 2.10732 0 9.236 20.227)"><stop stop-color="#65514F"/><stop offset="1" stop-color="#65514F" stop-opacity="0"/></radialGradient><radialGradient id="t" cx="0" cy="0" r="1" gradientUnits="userSpaceOnUse" gradientTransform="matrix(-.17705 -8.21822 8.20018 -.17667 8.674 20.282)"><stop offset=".808" stop-color="#574744" stop-opacity="0"/><stop offset="1" stop-color="#574744"/></radialGradient><radialGradient id="v" cx="0" cy="0" r="1" gradientUnits="userSpaceOnUse" gradientTransform="matrix(2.38035 0 0 7.9345 5.5 20.031)"><stop stop-color="#3A1F2D"/><stop offset="1" stop-color="#3A1F2D" stop-opacity="0"/></radialGradient><radialGradient id="w" cx="0" cy="0" r="1" gradientUnits="userSpaceOnUse" gradientTransform="matrix(0 -2.6702 2.06121 0 9.205 24.613)"><stop stop-color="#665150"/><stop offset="1" stop-color="#665150" stop-opacity="0"/></radialGradient><radialGradient id="x" cx="0" cy="0" r="1" gradientUnits="userSpaceOnUse" gradientTransform="rotate(-91.213 16.403 8.097) scale(8.1831 8.02265)"><stop offset=".808" stop-color="#564642" stop-opacity="0"/><stop offset="1" stop-color="#564642"/></radialGradient><linearGradient id="b" x1="26.587" y1="8.105" x2="12.093" y2="29.819" gradientUnits="userSpaceOnUse"><stop stop-color="#523835"/><stop offset="1" stop-color="#40292B"/></linearGradient><linearGradient id="h" x1="9.595" y1="21.013" x2="9.595" y2="30" gradientUnits="userSpaceOnUse"><stop stop-color="#3D2728"/><stop offset="1" stop-color="#4D312E"/></linearGradient><linearGradient id="i" x1="6.35" y1="25.506" x2="8.227" y2="25.506" gradientUnits="userSpaceOnUse"><stop stop-color="#3D2238"/><stop offset="1" stop-color="#3D2238" stop-opacity="0"/></linearGradient><linearGradient id="m" x1="8.345" y1="8.718" x2="10.69" y2="15.823" gradientUnits="userSpaceOnUse"><stop stop-color="#392726"/><stop offset="1" stop-color="#5A423E"/></linearGradient><linearGradient id="q" x1="7.126" y1="13.105" x2="10.001" y2="21.105" gradientUnits="userSpaceOnUse"><stop stop-color="#3C2827"/><stop offset="1" stop-color="#553B37"/></linearGradient><linearGradient id="u" x1="8.654" y1="16.486" x2="8.654" y2="25.515" gradientUnits="userSpaceOnUse"><stop stop-color="#3F2C29"/><stop offset="1" stop-color="#4D332F"/></linearGradient><filter id="a" x="9.18" y="2.181" width="18.933" height="27.637" filterUnits="userSpaceOnUse" color-interpolation-filters="sRGB"><feFlood flood-opacity="0" result="BackgroundImageFix"/><feBlend in="SourceGraphic" in2="BackgroundImageFix" result="shape"/><feColorMatrix in="SourceAlpha" values="0 0 0 0 0 0 0 0 0 0 0 0 0 0 0 0 0 0 127 0" result="hardAlpha"/><feOffset dx=".5"/><feGaussianBlur stdDeviation=".5"/><feComposite in2="hardAlpha" operator="arithmetic" k2="-1" k3="1"/><feColorMatrix values="0 0 0 0 0.305882 0 0 0 0 0.235294 0 0 0 0 0.227451 0 0 0 1 0"/><feBlend in2="shape" result="effect1_innerShadow_20020_3052"/></filter><filter id="f" x="5.323" y="1.398" width="12.677" height="20.87" filterUnits="userSpaceOnUse" color-interpolation-filters="sRGB"><feFlood flood-opacity="0" result="BackgroundImageFix"/><feBlend in="SourceGraphic" in2="BackgroundImageFix" result="shape"/><feGaussianBlur stdDeviation="1" result="effect1_foregroundBlur_20020_3052"/></filter><filter id="g" x="12.203" y="15.224" width="12.088" height="5.26" filterUnits="userSpaceOnUse" color-interpolation-filters="sRGB"><feFlood flood-opacity="0" result="BackgroundImageFix"/><feBlend in="SourceGraphic" in2="BackgroundImageFix" result="shape"/><feGaussianBlur stdDeviation=".75" result="effect1_foregroundBlur_20020_3052"/></filter></defs></svg>
